svgs/sharp-solid/box-ballot.svg

<svg xmlns="http://www.w3.org/2000/svg" viewBox="0 0 576 512"><!--! Font Awesome Pro 6.6.0 by @fontawesome - https://fontawesome.com License - https://fontawesome.com/license (Commercial License) Copyright 2024 Fonticons, Inc. --><path d="M128 0L448 0l0 224-320 0L128 0zM0 352l576 0 0 160L0 512 0 352zM0 160l96 0 0 96 384 0 0-96 96 0 0 160L0 320 0 160z"/></svg>

<svg xmlns="http://www.w3.org/2000/svg" viewBox="0 0 576 512"><!--! Font Awesome Pro 6.4.2 by @fontawesome - https://fontawesome.com License - https://fontawesome.com/license (Commercial License) Copyright 2023 Fonticons, Inc. --><path d="M128 0H448V224H128V0zM0 352H576V512H0V352zM0 160H96v96H480V160h96V320H0V160z"/></svg>
